packages/kaspersky-hexa-ui-icons/src/iconsSVGs/64x42/FlagBb.svg

<svg xmlns="http://www.w3.org/2000/svg" width="64" height="42" fill="none" viewBox="0 0 64 42"><g clip-path="url(#a)"><rect width="64" height="42" fill="#fff" rx="5"/><path fill="url(#b)" d="M2.6 0h58.8v42H2.6z"/><path fill="#08379d" d="M42.6666 0H64v42H42.6666z"/><path fill="#08379d" fill-rule="evenodd" d="M0 42h21.3333V0H0z" clip-rule="evenodd"/><path fill="#ffcc50" fill-rule="evenodd" d="M21.3335 42h21.3333V0H21.3335z" clip-rule="evenodd"/><path fill="#262626" fill-rule="evenodd" d="M31.4657 13.4683c.2809-.413.8916-.4074 1.1648.0108l1.462 2.238c.3042.4656-.0299 1.0829-.586 1.0829h-.0331c-.4141 0-.7377.3575-.6965.7696l.56 5.6a.7.7 0 0 0 .6965.6304h.4788a.7.7 0 0 0 .4923-.2024l.9877-.9771a.7.7 0 0 0 .2077-.4977v-2.2329a.7.7 0 0 0-.205-.495l-.3941-.394c-.368-.368-.2201-.9945.2736-1.1591l2.0014-.6671c.5053-.1685 1.0061.2668.9098.7907l-1.0323 5.6128a.7.7 0 0 1-.2033.378l-2.5469 2.4484a.7.7 0 0 1-.4851.1954h-.4181a.7.7 0 0 0-.7.7v1.4a.7.7 0 0 1-.7.7h-1.4a.7.7 0 0 1-.7-.7v-1.4a.7.7 0 0 0-.7-.7h-.41a.7.7 0 0 1-.495-.2051l-2.4451-2.4451a.7.7 0 0 1-.1915-.3577l-1.1218-5.6093c-.1054-.5271.3978-.9714.9077-.8014l1.9812.6604c.4937.1646.6416.7911.2736 1.1591l-.3941.394a.7.7 0 0 0-.205.495v2.2329c0 .187.0748.3662.2077.4977l.9878.9771a.7.7 0 0 0 .4922.2024h.4788a.7.7 0 0 0 .6965-.6304l.56-5.6c.0413-.4121-.2838-.7696-.6979-.7696-.562 0-.8974-.6289-.5813-1.0937z" clip-rule="evenodd"/></g><defs><linearGradient id="b" x1="3" x2="3" y1="0" y2="42" gradientUnits="userSpaceOnUse"><stop stop-color="#1132c7"/><stop offset="1" stop-color="#0522a5"/></linearGradient><clipPath id="a"><rect width="64" height="42" fill="#fff" rx="5"/></clipPath></defs></svg>

<svg width="64" height="42" viewBox="0 0 64 42" fill="none" xmlns="http://www.w3.org/2000/svg">
<g clip-path="url(#clip0_37941_2194)">
<rect width="64" height="42" rx="5" fill="white"/>
<rect x="2.59998" width="58.8" height="42" fill="url(#paint0_linear_37941_2194)"/>
<rect x="42.6666" width="21.3334" height="42" fill="#08379D"/>
<path fill-rule="evenodd" clip-rule="evenodd" d="M0 42H21.3333V0H0V42Z" fill="#08379D"/>
<path fill-rule="evenodd" clip-rule="evenodd" d="M21.3335 42H42.6668V0H21.3335V42Z" fill="#FFCC50"/>
<path fill-rule="evenodd" clip-rule="evenodd" d="M31.4657 13.4683C31.7466 13.0553 32.3573 13.0609 32.6305 13.4791L34.0925 15.7171C34.3967 16.1827 34.0626 16.8 33.5065 16.8H33.4734C33.0593 16.8 32.7357 17.1575 32.7769 17.5696L33.3369 23.1696C33.3727 23.5275 33.6738 23.8 34.0334 23.8H34.5122C34.6965 23.8 34.8734 23.7273 35.0045 23.5976L35.9922 22.6205C36.1251 22.489 36.1999 22.3098 36.1999 22.1228V19.8899C36.1999 19.7043 36.1262 19.5262 35.9949 19.3949L35.6008 19.0009C35.2328 18.6329 35.3807 18.0064 35.8744 17.8418L37.8758 17.1747C38.3811 17.0062 38.8819 17.4415 38.7856 17.9654L37.7533 23.5782C37.7268 23.7224 37.6557 23.8546 37.55 23.9562L35.0031 26.4046C34.8727 26.53 34.6989 26.6 34.518 26.6H34.0999C33.7133 26.6 33.3999 26.9134 33.3999 27.3V28.7C33.3999 29.0866 33.0865 29.4 32.6999 29.4H31.2999C30.9133 29.4 30.5999 29.0866 30.5999 28.7V27.3C30.5999 26.9134 30.2865 26.6 29.8999 26.6H29.4899C29.3042 26.6 29.1262 26.5262 28.9949 26.3949L26.5498 23.9498C26.4521 23.8521 26.3854 23.7277 26.3583 23.5921L25.2365 17.9828C25.1311 17.4557 25.6343 17.0114 26.1442 17.1814L28.1254 17.8418C28.6191 18.0064 28.767 18.6329 28.399 19.0009L28.0049 19.3949C27.8737 19.5262 27.7999 19.7043 27.7999 19.8899V22.1228C27.7999 22.3098 27.8747 22.489 28.0076 22.6205L28.9954 23.5976C29.1264 23.7273 29.3033 23.8 29.4876 23.8H29.9664C30.326 23.8 30.6272 23.5275 30.6629 23.1696L31.2229 17.5696C31.2642 17.1575 30.9391 16.8 30.525 16.8C29.963 16.8 29.6276 16.1711 29.9437 15.7063L31.4657 13.4683Z" fill="#262626"/>
</g>
<defs>
<linearGradient id="paint0_linear_37941_2194" x1="2.59998" y1="0" x2="2.59998" y2="42" gradientUnits="userSpaceOnUse">
<stop stop-color="#1132C7"/>
<stop offset="1" stop-color="#0522A5"/>
</linearGradient>
<clipPath id="clip0_37941_2194">
<rect width="64" height="42" rx="5" fill="white"/>
</clipPath>
</defs>
</svg>
